X:1
T: Merry Masons
C:
R:Jig
Q:180
K:G
M:6/8
L:1/16
|:D2|G2A2B2 B2A2G2|F2G2A2 A2F2D2|G2A2B2 B2A2G2|B2d2d2 d4D2|
G2A2B2 B2A2G2|F2G2A2 A2F2D2|G2A2B2 B2A2G2|B2d2d2 d4B2|
c2d2e2 d4c2|B2A2G2 d4B2|c2B2c2 A2d2c2|B2G2G2 G4B2|
c2d2e2 d4c2|B2A2G2 d4B2|c2B2c2 A2d2c2|B2G2G2 G4:|
